X: 590
T: Georgia Boys
B: jims roots
M:4/4
L:1/8
Q: 1/4=100
K:Gmaj
V:1 
DG|:"G"B4 B3c | d2(B2 B2) G2 | B3d B3G | (3ABA G4 D2|
       B4 B3c | d2(B2 B2) GB | "D"ABAG FDEF | [1 "G"G6 GA:|[2 "G"G4 B2d2 ||
  |:"G"g4 g3e  | d2B2 (3BcB G2 | g4 g3a | "Em"bag4 ef
    "G"g2b2 a3g | e2d4 (3BcB | "D" ABAG ADEF |[1 "G"G6 Bd:|[2 "G"G6 GA||
% abcbook-tune_id 6298c25deb3016ae70df9e9f


% abcbook-boost 0
% abcbook-tablature 
% abcbook-transpose 
% abcbook-lastupdated 1654178398184
% abcbook-soundfonts 
% abcbook-repeats 1


